X:1
T:Gottfried August Homilius 1714 - 1785
T:Unser Vater in dem Himmel
T:(Matthäus 6, 9-13)
%%score [ 1 2 3 4 ]
L:1/8
Q:1/4=180
M:3/2
K:C
V:1 treble nm="Canto"
V:2 treble nm="Alto"
V:3 treble-8 nm="Tenore"
V:4 bass nm="Basso"
V:1
"^Andante" z4 A4 A4 | A12 | ^G4 B4 B4 | B12 | A4 A4 B4 | c12 | B8 z4 | z4 z4 B4 | e8 d4 | %9
w: Un- ser|Va-|ter, un- ser|Va-|ter in dem|Him-|mel,|dein|Na- me|
 c4 c4 B4 | A12- | A4 d4 c4 | B6 B2 B4 | z4 z4 B4 | c8 c4 | c6 B2 A4 | G8 F4 | E8 z4 | z12 | %19
w: wer- de ge-|hei-||* li- get,|dein|Na- me|wer- de ge-|hei- li-|get,||
 z4 z4 G4 | c4 c4 B4 | A4 A4 G4 | ^F4 G8- | G4 ^F8 | E12 | z12 | z4 z4 e4 | e4 d2 c2 d4 | %28
w: dein|Reich, dein Reich|kom- me, dein-|Reich kom-||me.||Dein|Wil- le * ge-|
 d4 c4 E4 | ^F12 | G4 A4 B4 | c12 | B4 z4 g4 | g4 =f2 e2 f4 | f4 e4 G4 | A12 | G4 e2 d2 e4 | f12 | %38
w: sche- he auf|Er-|den wie im|Him-|mel, dein|Wil- le * ge-|sche- he auf|Er-|den wie * im|Him-|
 e4 g4 c4 | d12 | c4 z4 z4 | G8 G4 | c8 _B4 | A4 _B4 A2 G2 | A8 z4 | A8 A4 | d8 c4 | =B4 c4 B2 A2 | %48
w: mel, wie im|Him-|mel.|Un- ser|täg- lich|Brot gib uns *|heut,|un- ser|täg- lich|Brot gib uns *|
 B12 ||[M:4/4]"^Adagio"[Q:1/4=75] z8 | _B2 B2 B2 _A2 | _d2 d2 d2 c2 | %52
w: heut.||Und ver- gib uns|uns- re Schul- den,|
[M:4/4][Q:1/4=75][Q:1/4=75][Q:1/4=75][Q:1/4=75] z2 c2 B2 _B2 | z2 _B2 A2 _A2 | z2 G2 G2 G2 | %55
w: ver- gib uns,|ver- gib uns,|ver- gib uns|
 c2 _B2 _A2 G2 | ^F4 G2 G2 | G2 =F2 =B>B Bc | c2 B2 !fermata!c4 ||[M:3/2][Q:1/4=240] z4 z4 d4 | %60
w: uns- re Schul- *|den, wie wir|un- sern Schul- di- gern ver-|ge \- ben.|Und|
 d6 _e2 d4 | g4 g4 f4 |[M:3/2][Q:1/4=240][Q:1/4=240][Q:1/4=240][Q:1/4=240] _e8 d4 | c6 d2 c4 | %64
w: füh- re uns|nicht in Ver-|su- chung,|füh- re uns|
 f4 f4 _e4 | d12 | d12 | ^c4 A4 c4 | d6 =e2 f4 | e6 d2 e4 | f4 f4 d4 | B6 A2 B4 | =c6 d2 e4 | %73
w: nicht in Ver-|su-|chung;|son- dern er-|lö- se uns|von * dem|Ü- bel, er-|lö- se, er-|lö- se uns|
 d6 c2 d4 | e4 e4 e4 | e4 d2 c2 B2 A2 | ^G4 e4 G4 | A12 | ^G12 ||[M:2/2] x8 | %80
w: von * dem|Ü- bel, er-|lö * * se *|uns von dem|Ü-|bel.||
[M:2/2]"^Allabreve" z4 E4 | A4 ^G2 A2 | B4 A2 B2 | c4 B2 c2 | d3 c d2 B2 | e4 E4 | A4 z4 | %87
w: Denn|dein ist das|Reich und die|Kraft und die|Herr- lich- keit in|E- wig-|keit.|
 G2 c4 B2 | A2 d4 c2 |[M:2/2] B2 e4 d2 | ^c4 e4- | e4 ^d4 | z2 e2 B2 =d2 | =c4 z4 | z2 d2 A2 c2 | %95
w: A * *||* * men,|A- *|* men,|Dein ist das|Reich,|dein ist die|
 B8 | c4 A4 | B3 A ^G4 | A4 B2 c2 | d4 c2 d2 | e4 d2 e2 | A3 A A2 d2 | c2 B2 e2 d2 | c3 B c4 | %104
w: Kraft|und die|Herr- lich- keit,|dein ist das|Reich und die|Kraft und die|Herr- lich- keit in|E- * * *|* * wig-|
 B2 z2 z4 | z8 | z8 | z8 | z4 z2 B2 | B4 c2 B2 | A8- | A4 B2 A2 | G4 A2 G2 | ^F6 F2 | E4 z2 E2 | %115
w: keit.||||Denn|dein ist das|Reich|* und die|Kraft und die|Herr- lich-|keit, denn|
 A4 ^G2 A2 | B4 A2 B2 | c4 B2 c2 | d3 c d2 B2 | e4 E4 | A4 z4 | F2 _B4 A2 | G2 c4 _B2 | A2 d4 c2 | %124
w: dein ist das|Reich und die|Kraft und die|Herr- lich- keit in|E- wig-|keit,|A- * *||* * men,|
 _B8 | A2 c2 _B2 A2 | G4 z4 | z2 d4 c2 | B2 e4 d2 | c2 f4 e2 | d2 g4 f2 | e2 d4 c2 | B4 A2 B2 | %133
w: A-|men, dein ist das|reich,|A- *||* * men,|A- * *||* men, denn|
 c4 B2 c2 | A4 A2 B2 | ^G4 z4 | z8 | z8 | z4 a4 | e4 f2 e2 | d4 e2 d2 | c4 d2 c2 | B3 c B2 d2 | %143
w: dein ist das|Reich und die|Kraft,|||Denn|dein ist das|Reich und die|Kraft und die|Herr- lich- keit in|
 c4 B4 | A4 z4 |"^Adagio"[Q:1/4=180] e4 e4 | ^f8- | f4 e4 | d8 | e16 |] %150
w: E- wig-|keit.|A- men,|A-|* men,|A-|men.|
V:2
 z4 E4 E4 | E12 | E4 E4 E4 | E12 | E4 E4 E4 | E4 F4 E4 | E8 z4 | z12 | z12 | z4 z4 E4 | A8 G4 | %11
w: Un- ser|Va-|ter, un- ser|Va-|ter in dem|Him- * *|mel,|||dein|Na- me|
 F4 F4 E4 | D6 D2 D4 | z4 z4 D4 | E8 E4 | D6 D2 D4 | D8 D4 | C8 z4 | z4 z4 E4 | A4 A4 G4 | %20
w: wer- de ge-|hei- li- get,|dein|Na- me|wer- de ge-|hei- li-|get,|dein|Reich, dein Reich|
 ^F4 F4 G4 | ^F8 E4 | ^D4 E8- | E4 ^D8 | B,8 G4 | G4 =F2 E2 F4 | F4 E4 A4 | A4 E4 E4 | E4 E4 E4 | %29
w: kom- me, dein|Reich, dein|Reich kom-||me. Dein|Wil- le * ge-|sche- he, dein|Wil- le ge-|sche- he auf|
 E4 D2 C2 D4 | D4 D4 G4 | G4 ^F2 E2 F4 | G4 z4 G4 | A4 A4 B4 | G4 G4 E4 | F12 | E4 G2 F2 G4 | %37
w: Er- * * *|den wie im|Him- * * *|mel, dein|Wil- le ge-|sche- he auf|Er-|den wie * im|
 A8 G4 | G4 G4 G4 | A4 G8 | G4 z4 z4 | E8 E4 | F8 E4 | F4 F4 E4 | F8 z4 | ^F8 F4 | G8 ^F4 | %47
w: Him- *|mel, wie im|Him- *|mel.|Un- ser|täg- lich|Brot gib uns|heut,|un- ser|täg- lich|
 G4 G4 ^F4 | G12 ||[M:4/4] G2 G2 G2 F_E | D2 =EF G2 F2 | F2 GF F2 E2 |[M:4/4] z2 G2 F2 F2 | %53
w: Brot gib uns|heut.|Und ver- gib uns *|uns- re * Schul- den,|uns- re * Schul- den,|ver- gib uns,|
 z2 F2 F2 F2 | z2 F2 E2 E2 | F2 G2 F2 _E2 | D4 _E2 D2 | C2 F2 F>F F_E | _E2 D2 !fermata!E4 || %59
w: ver- gib uns,|ver- gib uns|uns- re Schul- *|den, wie wir|un- sern Schul- di- gern ver-|ge \- ben.|
[M:3/2] z4 z4 G4 | G6 G2 G4 | G4 G4 G4 |[M:3/2] G4 _A4 A4 | G6 G2 G4 | F4 F4 F4 | F12 | F12 | %67
w: Und|füh- re uns|nicht in Ver-|su \- chung,|füh- re uns|nicht in Ver-|su-|chung;|
 E4 E4 E4 | F6 G2 A4 | A8 A4 | A4 A4 z4 | z4 z4 G4 | G6 G2 G4 | G8 G4 | G4 G4 G4 | A8 D4 | %76
w: son- dern er-|lö- se uns|von dem|Ü- bel,|er-|lö- se uns|von dem|Ü- bel, er-|lö- se|
 E4 ^G4 E4 | ^D12 | E12 ||[M:2/2] x8 |[M:2/2] z8 | z8 | z8 | z8 | z8 | z8 | z4 A,4 | E4 ^D2 E2 | %88
w: uns von dem|Ü-|bel||||||||Denn|dein ist das|
 ^F4 E2 F2 |[M:2/2] G4 ^F2 G2 | A3 G A2 ^F2 | B4 B,4 | E4 ^G4 | z2 A2 E2 =G2 | =F4 z4 | %95
w: Reich und die|Kraft und die|Herr- lich- keit in|E- wig-|keit, dein,|dein ist das|Reich,|
 z2 G2 D2 F2 | E4 F2 E2 | D2 CD E2 D2 | C2 F4 E2 | D2 G4 F2 | E2 A4 G2 | ^F4 A4- | A4 ^G4 | %103
w: dein ist die|Kraft und die|Herr * * * lich-|keit, A- *||* * men,|A- *|* men.|
 z2 A2 E2 ^F2 | G2 E2 ^F2 G2 | A4 G2 A2 | B4 A2 B2 | E3 E E2 A2 | G4 ^F4 | E4 z4 | z8 | z8 | z8 | %113
w: Dein ist das|Reich, dein ist das|Reich und die|Kraft und die|Herr- lich- keit in|E- wig-|keit.||||
 z4 B,4 | E4 E2 E2 | E2 D4 E2 | F2 GF E2 D2 | G2 F4 E2 | D6 B2 | B6 E2 | E2 G2 F2 E2 | %121
w: Denn|dein ist das|Reich und die|Kraft * * * *|* und die|Herr- lich-|keit in|E * * wig-|
 F2 D2 E2 F2 | G4 F2 G2 | A4 z4 | z4 z2 C2 | F4 E2 F2 | G4 F2 G2 | A8 | G4 G4 | C6 C2 | G4 G4 | %131
w: keit, dein ist das|Reich und die|Kraft,|denn|dein ist das|Reich und die|Kraft|und die|Herr- lich-|keit in|
 G8- | G8 | G6 C2 | C4 z4 | z4 E4 | A4 ^G2 A2 | B4 A2 B2 | c4 c2 B2 | A8- | A4 =G4 | G4 F4 | %142
w: E-||* wig-|keit,|denn|dein ist das|Reich und die|Kraft und die|Herr-|* lich-|keit in|
 F3 E E2 E2 | E4 E4 | E4 z4 | A4 A4 | A8- | A4 A4 | A4 ^G4 | A16 |] %150
w: Herr- lich- keit in|E- wig-|keit.|A- men,|A-|* men,|A- men.||
V:3
 z4 c4 c4 | c12 | B4 B4 d4 | d12 | c4 c4 ^G4 | A12 | ^G8 B4 | e8 d4 | c4 c4 B4 | A4 e2 ^d2 e4- | %10
w: Un- ser|Va-|ter, un- ser|Va-|ter in dem|Him-|mel, dein|Na- me|wer- de ge-|hei- * * *|
w: ||||||||||
 e4 =d4 ^c4 | d4 B4 G4 | G6 G2 G4 | z4 z4 G4 | G8 G4 | A6 B2 c4 | c4 B2 A2 B4 | G8 z4 | z12 | z12 | %20
w: ||* li- get,|dein|Na- me|wer- de ge-|hei * * li-|get,|||
w: ||||||||||
 z4 z4 G4 | c4 c4 B4 | A4 B4 ^c4 | B8 A4 | G8 B4 | B2 A2 B2 =c2 d4 | G4 G4 c4 | c4 B2 A2 B4 | %28
w: dein|Reich, dein Reich|kom * *||me. Dein|Wil- * le * ge-|sche- he, dein|Wil- le * ge-|
w: ||||||||
 A4 A4 c4 | A12 | B4 d4 d4 | c8 d4 | d4 z4 c4 | c4 d4 d4 | d4 c4 c4 | c4 B2 A2 B4 | c4 c4 c4 | %37
w: sche- he auf|Er-|den wie im|Him- *|mel, dein|Wil- le ge-|sche- he auf|Er- * * *|den wie im|
w: |||||||||
 c4 d2 c2 d4 | c4 c4 c4 | c4 B2 d2 f4 | e4 z4 z4 | c8 c4 | c8 c4 | c4 _B4 c4 | c8 z4 | d8 d4 | %46
w: Him- * * *|mel, wie im|Him- * * *|mel.|Un- ser|täg- lich|Brot gib uns|heut,|un- ser|
w: |||||||||
 d8 d4 | d4 c4 d4 | d12 ||[M:4/4] z8 | z4 c2 c2 | cc_B_A G2 G2 |[M:4/4][K:treble-8] z2 e2 f2 F2 | %53
w: täg- lich|Brot gib uns|heut.||Und ver-|gib uns uns- re Schul- den|ver- gib uns,|
w: |||||||
 z2 F2 c2 c2 | z2 d2 c2 _d2 | c2 _d2 c4 | c4 c2 B2 | c_e =dc d>G G=A | G4 !fermata!G4 || %59
w: ver- gib uns,|ver- gib uns|uns- re Schul-|den, wie wir|un \- sern * Schul- di- gern ver-|ge- ben.|
w: ||||||
[M:3/2] z4 z4 B4 | B6 c2 B4 | c4 c6 B2 |[M:3/2][K:treble-8] c8 f4 | =e6 f2 e4 | c4 A4 c4 | _B8 c4 | %66
w: Und|füh- re uns|nicht in Ver-|su- chung,|füh- re uns|nicht in Ver-|su \-|
w: |||||||
 =B12 | A4 ^c4 A4 | A6 A2 A4 | e6 f2 e4 | e4 d4 f4 | d6 c2 d4 | c6 B2 c4 | d6 e2 d4 | d4 c4 c4 | %75
w: chung;|son- dern er-|lö- se uns|von * dem|Ü- bel, er-|lö- se, er-|lö- se uns|von * dem|Ü- bel, er-|
w: |||||||||
 c4 A8 | B4 B4 B4 | A12 | B12 ||[M:2/2] x8 |[M:2/2][K:treble-8] z8 | z8 | z8 | z8 | z8 | z8 | z8 | %87
w: lö- se|uns von dem|Ü-|bel|||||||||
w: ||||||||||||
 z8 | z8 |[M:2/2][K:treble-8] z8 | z8 | z8 | z8 | z8 | z8 | z8 | z8 | z4 E4 | A4 ^G2 A2 | %99
w: ||||||||||Denn|dein ist das|
w: ||||||||||||
 B4 A2 B2 | c4 B2 c2 | d3 c d2 B2 | e4 E4 | A4 z4 | G2 c4 B2 | A2 d4 c2 | B2 e4 d2 | ^c4 e4- | %108
w: Reich und die|Kraft und die|Herr- lich- keit in|E- wig-|keit.|A * *||* * men,|A- *|
w: |||||||||
 e4 ^d4 | z4 e4- | e4 ^f2 e2 | ^d8 | e6 e2 | e4 ^d2 d2 | e2 A2 ^GA ^FG | E2 A2 B2 c2 | d4 c2 d2 | %117
w: * men,|Dein|* ist das|Reich|und die|Kraft und die|Herr * * * lich *|keit, A * *||
w: |||||||||
 e4 d2 e2 | A8- | A4 ^G4 | z4 A4 | d4 ^c2 d2 | e4 d2 e2 | =c2 f2 g2 a2 | d6 g2 | c8- | c8 | %127
w: * * men,|A-|* men,|Denn|dein ist das|Reich und die|Kraft, A * *||||
w: ||||||||||
 c2 f4 e2 | d2 c4 =B2 | A8 | B8 | c2 d4 e2 | f4 e2 d2 | c4 d2 c2 | c6 d2 | B4 z4 | c2 f4 e2 | %137
w: |||men,|dein ist das|Reich und die|Kraft und die|Herr- lich-|keit,|A * *|
w: ||||||||||
 d2 g4 f2 | e6 d2 | e4 d2 e2 | f4 e4- | e4 d4- | d3 c d2 ^G2 | A4 ^G4 | A4 z4 | ^c4 e4- | %146
w: |* men,|A- * *|||* * men, in|E- wig-|keit.|A- *|
w: |||||||||
 e4 d2 ^c2 | d4 e4 | ^f4 B4 | ^c16 |] %150
w: |||men.|
w: * men, *|A *|||
V:4
 z4 A,4 A,,4 | E,12 | E,4 ^G,4 G,4 | A,12 | A,,4 A,,4 E,4 | A,12 | E,8 z4 | z12 | z4 z4 E,4 | %9
w: Un- ser|Va-|ter, un- ser|Va-|ter in dem|Him-|mel,||dein|
 A,8 G,4 | F,4 F,4 E,4 | D,8 E,4 | F,6 F,2 F,4 | z4 z4 F,4 | E,8 E,4 | F,6 F,2 F,4 | %16
w: Na- me|wer- de ge-|hei- *|* li- get,|dein|Na- me|wer- de ge-|
"^Copyright © 2010 by the Choral Public Domain Library (http://www.cpdl.org).\nEdition may be freely distributed, duplicated, performed, or recorded\nRevision 1.0, 2010-12-11 by Gerd Eichler" G,8 G,,4 | %17
w: hei- li-|
 C,8 E,4 | A,4 A,4 G,4 | ^F,4 F,4 E,4 | ^D,8 E,4 | A,,8 B,,4 | C,4 B,,4 ^A,,4 | B,,12 | E,8 E,4 | %25
w: get, dein|Reich, dein Reich|kom- me, dein|Reich, dein|Reich, dein|Reich kom- *||me. Dein|
 D,6 C,2 B,,4 | C,2 B,,2 C,4 A,,4 | E,4 E,4 ^G,4 | A,4 A,,4 A,4 | D,12 | G,4 ^F,4 G,4 | A,12 | %32
w: Wil- le ge-|sche- * he, dein|Wil- le ge-|sche- he auf|Er-|den wie im|Him-|
 G,4 z4 E,4 | =F,4 F,4 G,4 | C2 B,2 C4 C,4 | C,12 | C,4 C4 C4 | C4 B,2 A,2 B,4 | C4 E,4 E,4 | %39
w: mel, dein|Wil- le ge-|sche- * he auf|Er-|den wie im|Him- * * *|mel, wie im|
 F,4 G,8 | C,4 z4 z4 | C8 _B,4 | A,8 G,4 | F,4 G,4 C,4 | F,8 z4 | D,4 D4 C4 | =B,8 A,4 | %47
w: Him- *|mel.|Un- ser|täg- lich|Brot gib uns|heut,|un- * ser|täg- lich|
 G,4 A,4 D,4 | G,12 ||[M:4/4] z4 _A,2 A,2 | _A,2 G,F, E,2 F,2 | _B,2 _B,,2 C,=B,, C,2 | %52
w: Brot gib uns|heut.|Und ver-|gib uns, ver- gib uns|uns- re Schul- * den,|
[M:4/4] z2 C2 _D2 _D,2 | z2 _D,2 C,2 C2 | z2 =B,2 C2 _B,2 | _A,2 _B,2 C3 B, | =A,4 G,2 G,2 | %57
w: ver- gib uns,|ver- gib uns,|ver- gib uns|uns- re Schul- *|den, wie wir|
 _A,2 A,2 G,>G, G,^F, | G,4 !fermata!C,4 ||[M:3/2] z4 z4 G,4 | G,4 G,4 F,4 | _E,4 E,4 D,4 | %62
w: un- sern Schul- di- gern ver-|ge- ben.|Und|füh- re uns|nicht in Ver-|
[M:3/2] C,4 C4 =B,4 | C6 C2 C4 | =A,4 F,4 A,4 | _B,8 A,4 | ^G,12 | A,4 A,4 =G,4 | F,6 E,2 D,4 | %69
w: su \- chung,|füh- re uns|nicht in Ver-|su \-|chung;|son- dern er-|lö- se uns|
 ^C,8 C,4 | D,4 D,4 z4 | z4 z4 G,4 | E,6 D,2 =C,4 | B,,8 B,4 | C4 C,4 C,4 | F,8 F,4 | E,4 E,4 E,4 | %77
w: von dem|Ü- bel,|er-|lö- se uns|von dem|Ü- bel, er-|lö- se|uns von dem|
 F,12 | E,12 ||[M:2/2] x8 |[M:2/2] z8 | z8 | z8 | z8 | z8 | z8 | z8 | z8 | z8 |[M:2/2] z8 | z8 | %91
w: Ü-|bel|||||||||||||
 z8 | z8 | z8 | z8 | z8 | z8 | z8 | z8 | z8 | z8 | z8 | z8 | z4 A,,4 | E,4 ^D,2 E,2 | %105
w: ||||||||||||Denn|dein ist das|
 ^F,4 E,2 F,2 | G,4 ^F,2 G,2 | A,3 G, A,2 ^F,2 | B,4 B,,4 | C,4 C4- | C4 D2 C2 | B,8- | %112
w: Reich und die|Kraft und die|Herr- lich- keit in|E- wig-|keit, Dein|* ist das|Reich|
 B,4 C2 B,2 | A,4 B,2 A,2 | ^G,2 ^F,2 E,2 D,2 | C,2 =F,4 E,2 | D,2 G,4 F,2 | E,2 A,4 G,2 | F,8 | %119
w: * und die|Kraft und die|Herr * * lich-|keit, A *||* * men,|A-|
 E,6 D,2 | ^C,8 | D,4 z4 | z4 z2 =C,2 | F,4 E,2 F,2 | G,4 F,2 E,2 | F,2 A,2 G,2 F,2 | %126
w: ||men.|Denn|dein ist das|Reich und die|Kraft * und die|
 E,2 _B,2 A,2 G,2 | F,4 F,4 | G,8 | z8 | z4 G,,4 | C,4 B,,2 C,2 | D,4 C,2 D,2 | E,4 D,2 E,2 | %134
w: Herr * * *|* lich-|keit,||denn|dein ist das|Reich und die|Kraft und die|
 F,3 E, F,2 D,2 | E,4 z4 | z8 | z8 | z2 A,2 A,2 B,2 | C4 D2 C2 | B,4 C2 B,2 | A,4 B,2 A,2 | %142
w: Herr- * * lich-|keit,|||dein ist das|Reich und die|Kraft und die|Herr * *|
 ^G,3 A, G,2 E,2 | A,4 E,4 | A,,4 z4 | A,4 ^C4 | D4 D,4 | D4 ^C4 | B,8 | A,16 |] %150
w: * lich- keit in|E- wig-|keit.|A- men,|A- *|* men,|A-|men.|

